packages/react/src/components/base/Icon/assets/icon-copy.svg

<svg width="24" height="24" viewBox="0 0 24 24" xmlns="http://www.w3.org/2000/svg" fill="currentColor"> <path d="M20.75 2.625H8.75C8.45163 2.625 8.16548 2.74353 7.9545 2.9545C7.74353 3.16548 7.625 3.45163 7.625 3.75V7.125H4.25C3.95163 7.125 3.66548 7.24353 3.4545 7.4545C3.24353 7.66548 3.125 7.95163 3.125 8.25V20.25C3.125 20.5484 3.24353 20.8345 3.4545 21.0455C3.66548 21.2565 3.95163 21.375 4.25 21.375H16.25C16.5484 21.375 16.8345 21.2565 17.0455 21.0455C17.2565 20.8345 17.375 20.5484 17.375 20.25V16.875H20.75C21.0484 16.875 21.3345 16.7565 21.5455 16.5455C21.7565 16.3345 21.875 16.0484 21.875 15.75V3.75C21.875 3.45163 21.7565 3.16548 21.5455 2.9545C21.3345 2.74353 21.0484 2.625 20.75 2.625ZM15.125 19.125H5.375V9.375H15.125V19.125ZM19.625 14.625H17.375V8.25C17.375 7.95163 17.2565 7.66548 17.0455 7.4545C16.8345 7.24353 16.5484 7.125 16.25 7.125H9.875V4.875H19.625V14.625Z"/> </svg>

<svg viewBox="0 0 24 24" xmlns="http://www.w3.org/2000/svg" aria-hidden="true" fill="currentColor"><path d="M20.75 2.625h-12A1.125 1.125 0 0 0 7.625 3.75v3.375H4.25A1.125 1.125 0 0 0 3.125 8.25v12a1.125 1.125 0 0 0 1.125 1.125h12a1.125 1.125 0 0 0 1.125-1.125v-3.375h3.375a1.125 1.125 0 0 0 1.125-1.125v-12a1.125 1.125 0 0 0-1.125-1.125m-5.625 16.5h-9.75v-9.75h9.75zm4.5-4.5h-2.25V8.25a1.125 1.125 0 0 0-1.125-1.125H9.875v-2.25h9.75z"/></svg>
